React/src/assets/images/backend/gradle.svg

<svg width="130" height="130" viewBox="0 0 130 130" fill="none" xmlns="http://www.w3.org/2000/svg">
<path d="M117.596 30.1127C113.634 22.9855 106.55 20.8567 101.546 20.7549C95.407 20.6327 90.3625 24.0321 91.3174 26.2653C91.5211 26.744 92.6721 29.2445 93.38 30.2783C94.4036 31.7705 96.2319 30.6247 96.8761 30.2834C98.791 29.2649 100.836 28.9339 103.158 29.2063C105.376 29.4635 108.327 30.8309 110.303 34.63C114.958 43.5751 100.589 61.9831 82.6037 49.2361C64.6215 36.489 47.1332 40.7135 39.2141 43.2826C31.2949 45.8494 27.6538 48.4339 30.7857 54.4074C35.0381 62.5253 33.6275 60.0347 37.7499 66.7574C44.2992 77.4266 58.6323 61.8429 58.6323 61.8429C47.9555 77.5843 38.8013 73.7802 35.2897 68.2774C32.1246 63.3196 29.6672 57.6006 29.6672 57.6006C2.62016 67.1393 9.93807 109.248 9.93807 109.248H23.3698C26.7946 93.7433 39.0375 94.3164 41.1359 109.248H51.3848C60.4496 78.9721 83.4206 109.248 83.4206 109.248H96.7813C93.0382 88.5969 104.295 82.1067 111.39 70.001C118.484 57.8931 125.206 43.0834 117.595 30.1126L117.596 30.1127ZM83.1361 69.9886C76.0728 67.6817 78.601 60.6535 78.601 60.6535C78.601 60.6535 84.7685 62.6473 93.1128 65.3694C92.6316 67.5491 88.481 71.7302 83.1364 69.9859L83.1361 69.9886Z" fill="#0097A7"/>
</svg>

<svg width="130" height="130" fill="none" xmlns="http://www.w3.org/2000/svg"><path d="M117.596 30.113c-3.962-7.128-11.046-9.256-16.05-9.358-6.139-.122-11.184 3.277-10.229 5.51.204.479 1.355 2.98 2.063 4.013 1.024 1.492 2.852.347 3.496.005 1.915-1.018 3.96-1.35 6.282-1.077 2.218.258 5.169 1.625 7.145 5.424 4.655 8.945-9.714 27.353-27.7 14.606-17.981-12.747-35.47-8.522-43.389-5.953-7.92 2.566-11.56 5.15-8.428 11.124 4.252 8.118 2.841 5.628 6.964 12.35 6.55 10.67 20.882-4.914 20.882-4.914-10.676 15.741-19.83 11.937-23.342 6.434-3.165-4.957-5.623-10.676-5.623-10.676C2.62 67.139 9.938 109.248 9.938 109.248H23.37c3.425-15.505 15.668-14.932 17.766 0h10.249c9.065-30.276 32.036 0 32.036 0h13.36c-3.743-20.651 7.514-27.141 14.609-39.247 7.094-12.108 13.816-26.918 6.205-39.888h.001zm-34.46 39.876c-7.063-2.307-4.535-9.336-4.535-9.336s6.168 1.994 14.512 4.716c-.481 2.18-4.632 6.361-9.977 4.617v.003z" fill="#0097A7"/></svg>
